X: 33584
T: Rakes Of Listowel, The
R: jig
M: 6/8
K: Dmajor
|:AFD DFA|d2d cBA|BGE DFA|B2A Bcd|
AFD DFA|ded cBA|Bcd ecA|1 dfe d2B:|2 dfe d2c||
|:d2e fdB|f2e fdB|c2d ecA|e2d ecA|d2e fdB|
[1 f2e fdB|ecA ABc|dfe d2c:|2 fba gfe|ecA ABc|dfe dcB||

